X: 11
T:Flowing Bowl
C:Adderbury
M:4/4
L:1/4
A:Adderbury
P:A(AB)6
K:G
P:A
|:B3/4A/4|GD B,D|GG G>G|AA AA|B2 G:|
P:B
z|B>B Bd|dc c2|A>A Ac|cB B2|
B>B Bd|ec ed/c/|BG  AF|G2 G||
W:
W:Usual words.  Sing chorus then repeat it with stick-tapping
</abc>
